X:1
T:O Blessèd Savior, Lord of Love
T:O Blessèd Savior, Lord of Love
T:Maltbie Davenport Babcock
T:Maltbie Davenport Babcock, 1899
T:Public Domain Courtesy of the Cyber Hymnal™
T:Public Domain Courtesy of the Cyber Hymnal™
C:Maltbie Davenport Babcock
Z:Public Domain
Z:Courtesy of the Cyber Hymnal™
%%score ( 1 2 ) ( 3 4 )
L:1/8
Q:1/4=85
M:6/8
K:Bb
V:1 treble 
V:2 treble 
V:3 bass 
V:4 bass 
V:1
 FG[DA] [Dc]2 [FB] | (BA)[EG] (G F2) | FG[DA] [Dc]2 [FB] | (BA)[EG] (G F2) | FG[DA] [Dc]2 [DB] | %5
w: 1.~O bless- èd Sav- ior,|Lord * of love, *|Leav- ing for us Thy|home * a- bove, *|How can we show our|
w: 2.~All of our gifts have|come * from Heaven, *|Our home and friends Thy|love * has given; *|If we could see Thy|
w: 3.~Heath- en up- on the|dis- * tant shore, *|Hun- gry and need- y|at * our door, *|Sin- ning and suf- fering|
w: 4.~Hum- bly we thank Thee,|bless- * èd Lord, *|For this the com- fort|of * Thy word, *|When thou a lov- ing|
 (BA)[_EG] (d c2) | cB[DA] (GB)[Dd] | [=EA]2 [EG] [CF]3 ||"^Refrain" FG[CF] (F B2) | %9
w: love * to Thee *|When Thy dear face * we|can- not see?||
w: bless- * èd face, *|How should we thank * Thee|for Thy grace?|“Smile with the glad, *|
w: ev- * ery- where, *|Thou hast com- mit- * ted|to our care.||
w: deed * dost see, *|“Lo, ye have done * it|un- to Me.”||
 FG[EF] (F d2) | [^Fc][GB][EG] =FG[DB] | [Ec]2 [EF] (F d2) | G_A[DG] ([CG]c)G | [Fd]2 [FG] [EGe]3 | %14
w: |||||
w: grieve with the sad, *|Gen- tle, and thought- ful, and|lov- ing be; *|Friend- ly in need, * and|kind in deed;|
w: |||||
w: |||||
 GA[EB] (FB)[Ee] | [Fd]2 [Ec] [DB]6 |] %16
w: ||
w: I count it all * as|done to Me.”|
w: ||
w: ||
V:2
 D2 x4 | E2 E3 x | D2 x4 | E2 E3 x | D2 x4 | =E2 F3 x | D2 D2 x2 | x6 || C2 B,3 x | E2 D3 x | %10
 x3 D2 x | x3 D3 | D2 x2 G x | x6 | E2 D2 x2 | x9 |] %16
V:3
 [B,,F,]2 [B,,F,] [D,F,]2 [D,F,] | [C,F,]2 [C,F,] [A,,F,]3 | [B,,F,]2 [B,,F,] [D,F,]2 [D,F,] | %3
 [C,F,]2 [B,,F,] [A,,F,]3 | [B,,F,]2 [A,,F,] [G,,G,]2 [G,,G,] | [C,G,]2 [B,,G,] [A,,F,]3 | %6
 [D,^F,]2 [C,F,] [B,,G,]2 [B,,G,] | [C,B,]2 [C,B,] [F,A,]3 || [E,B,]2 [E,A,] [D,F,]3 | %9
 [C,A,]2 [C,A,] [B,,B,]3 | A,B,[E,B,] [F,B,]2 [F,B,] | [F,A,]2 [F,A,] [B,,B,]3 | %12
 [F,=B,]2 [F,B,] [E,G,]2 [E,G,] | [D,G,=B,]2 [D,B,] [C,C]3 | [C,B,][C,A,][C,G,] F,2 [F,G,] | %15
 [F,A,]2 [F,A,] [B,,F,]6 |] %16
V:4
 x6 | x6 | x6 | x6 | x6 | x6 | x6 | x6 || x6 | x6 | E,2 x4 | x6 | x6 | x6 | x3 F,2 x | x9 |] %16

